X: 25
M: 6/8
L: 1/8
K: D
(3e/f/g/ |\
aaa agf | gab baf | faa aff | gfg efg |
aaa "c."gff | edf fdd | [AD]FA dfd | [d3D3] [d2D2] |]
P: VAR:
"a."Aff || "b."dAF || "c."fff |] y6 y6 y6 y6 y6 y6


